gamestock/images/cart.svg

<svg width="35" height="36" viewBox="0 0 35 36" fill="none" xmlns="http://www.w3.org/2000/svg">
<g clip-path="url(#clip0)">
<path d="M8.47112 5.80437C8.39262 5.52611 8.01819 5.24286 7.72914 5.24286H1.51852C0.959839 5.24286 0.506905 4.79006 0.506905 4.23125C0.506905 3.67243 0.959839 3.21964 1.51852 3.21964H7.72914C8.91474 3.21964 10.0959 4.11336 10.4181 5.25432L12.0959 11.1922C12.2877 11.1388 12.4898 11.1079 12.6999 11.1079H32.7657C33.4044 11.1079 34.0107 11.3728 34.4291 11.8347C34.8475 12.2965 35.0515 12.9258 34.9887 13.5611L34.0529 23.0471C33.9281 24.3113 32.8353 25.3016 31.5649 25.3016H15.9908C14.8002 25.3016 13.6241 24.4013 13.3134 23.2521L11.3622 16.0367L8.47112 5.80437ZM15.2666 22.724C15.3408 22.9987 15.7064 23.2784 15.9909 23.2784H31.565C31.7871 23.2784 32.0177 23.0695 32.0395 22.8484L32.9754 13.3625C32.9825 13.2923 32.9667 13.2338 32.93 13.1933C32.8932 13.1527 32.8365 13.1313 32.7658 13.1313H12.6999C12.6901 13.1313 12.6814 13.1317 12.6739 13.1322C12.6752 13.1398 12.6773 13.1481 12.6798 13.1576L15.2666 22.724Z" fill="white"/>
<path d="M28.6121 26.4538C30.3472 26.4538 31.7587 27.8653 31.7587 29.6003C31.7587 31.3353 30.3472 32.7468 28.6121 32.7468C26.8771 32.7468 25.4656 31.3353 25.4656 29.6003C25.4656 27.8653 26.8771 26.4538 28.6121 26.4538ZM28.6121 30.7236C29.2316 30.7236 29.7355 30.2197 29.7355 29.6003C29.7355 28.9809 29.2316 28.477 28.6121 28.477C27.9927 28.477 27.4888 28.9809 27.4888 29.6003C27.4888 30.2197 27.9927 30.7236 28.6121 30.7236Z" fill="white"/>
<path d="M18.6351 26.4538C20.3701 26.4538 21.7816 27.8653 21.7816 29.6003C21.7816 31.3353 20.3701 32.7468 18.6351 32.7468C16.9001 32.7468 15.4886 31.3353 15.4886 29.6003C15.4886 27.8653 16.9 26.4538 18.6351 26.4538ZM18.6351 30.7236C19.2545 30.7236 19.7584 30.2197 19.7584 29.6003C19.7584 28.9809 19.2545 28.477 18.6351 28.477C18.0157 28.477 17.5118 28.9809 17.5118 29.6003C17.5118 30.2197 18.0156 30.7236 18.6351 30.7236Z" fill="white"/>
<path d="M0.674431 11.4453H7.97733C8.34973 11.4453 8.65173 11.7471 8.65173 12.1197C8.65173 12.4922 8.34973 12.7941 7.97733 12.7941H0.674431C0.302023 12.7941 2.28882e-05 12.4922 2.28882e-05 12.1197C2.28882e-05 11.7471 0.302023 11.4453 0.674431 11.4453Z" fill="white"/>
<path d="M2.69914 14.5845H9.19193C9.56433 14.5845 9.86633 14.8863 9.86633 15.2589C9.86633 15.6314 9.56433 15.9333 9.19193 15.9333H2.69914C2.32673 15.9333 2.02473 15.6314 2.02473 15.2589C2.02473 14.8863 2.32673 14.5845 2.69914 14.5845Z" fill="white"/>
<path d="M4.45382 17.7238H10.0015C10.3739 17.7238 10.6759 18.0257 10.6759 18.3983C10.6759 18.7708 10.3739 19.0727 10.0015 19.0727H4.45382C4.08141 19.0727 3.77941 18.7708 3.77941 18.3983C3.77941 18.0257 4.08141 17.7238 4.45382 17.7238Z" fill="white"/>
</g>
<defs>
<clipPath id="clip0">
<rect width="35" height="35" fill="white" transform="matrix(-1 0 0 1 35 0.483276)"/>
</clipPath>
</defs>
</svg>

<svg width="35" height="36" fill="none" xmlns="http://www.w3.org/2000/svg"><g clip-path="url(#clip0)" fill="#fff"><path d="M8.471 5.804c-.078-.278-.453-.561-.742-.561H1.52a1.012 1.012 0 110-2.023h6.21c1.186 0 2.367.893 2.69 2.034l1.677 5.938c.192-.053.394-.084.604-.084h20.066c.638 0 1.245.265 1.663.727.418.461.622 1.09.56 1.726l-.936 9.486a2.522 2.522 0 01-2.488 2.255H15.99c-1.19 0-2.367-.9-2.678-2.05l-1.95-7.215L8.47 5.804zm6.796 16.92c.074.275.44.554.724.554h15.574a.514.514 0 00.474-.43l.936-9.485c.008-.07-.008-.13-.045-.17a.215.215 0 00-.164-.062H12.7l-.026.001a.306.306 0 00.006.026l2.587 9.566zm13.345 3.73A3.15 3.15 0 0131.76 29.6a3.15 3.15 0 01-3.147 3.147 3.15 3.15 0 01-3.146-3.147 3.15 3.15 0 013.146-3.146zm0 4.27A1.125 1.125 0 1027.49 29.6c0 .619.504 1.123 1.123 1.123zm-9.977-4.27a3.15 3.15 0 013.147 3.146 3.15 3.15 0 01-3.147 3.147A3.15 3.15 0 0115.49 29.6a3.15 3.15 0 013.146-3.146zm0 4.27a1.125 1.125 0 000-2.247 1.124 1.124 0 000 2.247z"/><path d="M.674 11.445h7.303a.674.674 0 110 1.35H.674a.674.674 0 010-1.35zm2.026 3.14h6.492a.674.674 0 110 1.348H2.699a.674.674 0 010-1.348zm1.754 3.139h5.548a.674.674 0 010 1.349H4.454a.674.674 0 010-1.35z"/></g><defs><clipPath id="clip0"><path fill="#fff" transform="matrix(-1 0 0 1 35 .483)" d="M0 0h35v35H0z"/></clipPath></defs></svg>
